apps/www/public/images/logos/publicity/archive/loops.svg

<svg width="118" height="28" viewBox="0 0 118 28" fill="none" xmlns="http://www.w3.org/2000/svg">
<path d="M15.2616 0.604981H11.6565C8.58677 0.608607 5.64382 1.82986 3.47343 4.00076C1.30304 6.17166 0.0824899 9.1149 0.0795898 12.1847C0.0832148 15.2539 1.30409 18.1965 3.4744 20.3668C5.64471 22.5371 8.58724 23.758 11.6565 23.7616H15.2753C18.3451 23.7587 21.2883 22.5381 23.4592 20.3677C25.6301 18.1974 26.8514 15.2544 26.855 12.1847C26.8521 9.11205 25.6293 6.16633 23.4554 3.99495C21.2814 1.82358 18.3342 0.604253 15.2616 0.604981ZM1.51232 12.1847C1.51232 9.49643 2.58022 6.9183 4.48108 5.01743C6.38195 3.11657 8.96008 2.04867 11.6483 2.04867C12.2146 2.04867 12.78 2.09524 13.3385 2.18839C15.7032 2.57948 17.8514 3.79959 19.3984 5.63022C20.9454 7.46085 21.7902 9.78242 21.7815 12.1792C21.7788 13.7183 21.2321 15.2068 20.238 16.3819C19.244 17.5569 17.8666 18.3427 16.3492 18.6005C17.3599 17.8625 18.182 16.8963 18.7486 15.7804C19.3151 14.6645 19.6099 13.4306 19.6092 12.1792C19.6122 10.4136 19.0271 8.69735 17.9461 7.30138C16.8652 5.90541 15.35 4.9093 13.6399 4.47035C12.9894 4.30224 12.3202 4.21755 11.6483 4.21832C9.54047 4.22484 7.52108 5.06619 6.03215 6.5582C4.54322 8.05021 3.70605 10.0713 3.70389 12.1792C3.6985 14.1352 4.19014 16.0606 5.13267 17.7746C6.0752 19.4886 7.43773 20.935 9.09239 21.9782C6.92681 21.4095 5.01003 20.1408 3.64054 18.3694C2.27104 16.5981 1.52569 14.4237 1.52054 12.1847H1.51232ZM13.4536 5.93048C14.8102 6.32117 16.0028 7.14268 16.8514 8.27094C17.6999 9.3992 18.1583 10.7729 18.1572 12.1847C18.1577 13.5959 17.699 14.969 16.8505 16.0967C16.002 17.2244 14.8097 18.0455 13.4536 18.4361C12.0975 18.0455 10.9052 17.2244 10.0567 16.0967C9.20818 14.969 8.74953 13.5959 8.74996 12.1847C8.74894 10.7729 9.20731 9.3992 10.0558 8.27094C10.9044 7.14268 12.097 6.32117 13.4536 5.93048ZM15.2616 22.3152H15.2206C14.6698 22.3121 14.1202 22.2654 13.5769 22.1754C11.2708 21.793 9.16912 20.6215 7.63113 18.8611C6.09313 17.1008 5.21429 14.8609 5.14484 12.5243V12.1847C5.14656 10.6453 5.6929 9.15616 6.68713 7.98093C7.68137 6.80569 9.05937 6.02015 10.5772 5.76337C9.56594 6.501 8.74331 7.46713 8.17632 8.58302C7.60932 9.69891 7.31403 10.933 7.31449 12.1847C7.31197 13.9498 7.89737 15.6654 8.97829 17.0608C10.0592 18.4563 11.5741 19.4519 13.2838 19.8907C13.9338 20.06 14.6034 20.145 15.2753 20.1428C17.3856 20.1406 19.4087 19.3015 20.9011 17.8097C22.3935 16.3178 23.2333 14.2949 23.2362 12.1847C23.2423 10.2285 22.751 8.30285 21.8084 6.58873C20.8658 4.87461 19.5029 3.42827 17.8477 2.38563C20.0128 2.95499 21.9285 4.22512 23.2958 5.9978C24.6631 7.77047 25.405 9.94594 25.4058 12.1847C25.4051 13.516 25.1421 14.8341 24.6319 16.0637C24.1216 17.2933 23.3742 18.4104 22.4322 19.3512C21.4902 20.2919 20.3721 21.0378 19.1417 21.5464C17.9114 22.055 16.5929 22.3162 15.2616 22.3152Z" fill="#B4B4B4"/>
<path d="M50.0335 21.7426H33.5448V19.8825C35.5774 19.5401 35.9774 18.8251 35.9774 18.1375V6.48659C35.9774 5.17165 35.5774 4.6265 33.5448 4.48405V2.62396H43.9081V4.48405C41.8754 4.6265 41.4755 5.17165 41.4755 6.48659V18.8141C41.4755 19.499 41.6755 19.9866 43.3931 19.9866H45.2532C46.3106 19.9866 47.5708 19.4716 48.4584 16.6664H50.3184L50.0335 21.7426ZM51.5211 14.7296C51.5211 10.0945 54.8714 6.65917 59.6216 6.65917C64.6321 6.65917 67.5222 10.0369 67.5222 14.1571C67.5222 18.7676 64.1171 22.1453 59.4518 22.1453C54.3564 22.1453 51.5211 18.8525 51.5211 14.7296ZM62.1419 15.7898C62.1419 11.2395 60.5667 8.51926 59.0217 8.51926C57.5616 8.51926 56.9616 10.352 56.9616 12.9846C56.9616 17.6225 58.5642 20.2852 60.0791 20.2852C61.5146 20.2852 62.1419 18.4799 62.1419 15.7898ZM69.2974 14.7296C69.2974 10.0945 72.6477 6.65917 77.3979 6.65917C82.4084 6.65917 85.2985 10.0369 85.2985 14.1571C85.2985 18.7676 81.8934 22.1453 77.2254 22.1453C72.1327 22.1453 69.2974 18.8525 69.2974 14.7296ZM79.9182 15.7898C79.9182 11.2395 78.3431 8.51926 76.798 8.51926C75.3379 8.51926 74.7352 10.352 74.7352 12.9846C74.7352 17.6225 76.3405 20.2852 77.8554 20.2852C79.2882 20.2852 79.9182 18.4799 79.9182 15.7898ZM102.968 13.9297C102.968 18.9374 99.9354 22.1481 95.555 22.1481C94.6714 22.1643 93.7939 21.9983 92.9772 21.6604V23.778C92.9772 24.8382 93.4073 25.2683 95.3551 25.5532V27.4242H85.9944V25.5641C87.4819 25.2217 87.6545 24.8492 87.6545 23.789V11.1875C87.6545 10.4424 87.397 10.0123 86.4518 9.58491L85.9944 9.38493V7.89467L91.8321 6.66465H92.9772V8.49735C93.339 7.92397 93.843 7.4539 94.4401 7.13278C95.0372 6.81166 95.7073 6.6504 96.3851 6.66465C100.935 6.65918 102.968 10.1657 102.968 13.9297ZM97.4727 14.9597C97.4727 11.9819 96.6508 9.40685 94.6675 9.40685C93.8073 9.40685 93.6648 9.34932 92.9772 9.86434V15.6172C92.9772 19.0251 93.5251 20.0277 95.0099 20.0277C96.3851 20.0277 97.4727 18.3375 97.4727 14.9597ZM116.802 8.34668L114.17 11.9545C112.909 9.43424 111.704 8.37681 110.277 8.37681C109.417 8.37681 108.302 8.89183 108.302 9.77941C108.302 12.7928 117.26 10.8368 117.09 17.48C117.002 19.8825 114.685 22.1371 110.677 22.1371C107.184 22.1371 104.267 20.3893 103.554 19.7592L106.647 16.5267C108.365 19.2168 109.767 20.4195 111.14 20.4195C111.855 20.4195 113.115 20.1044 113.145 18.7018C113.145 15.4665 104.299 18.0717 104.327 11.5792C104.327 8.51653 106.874 6.64822 110.94 6.64822C114.14 6.65917 116.202 7.77413 116.802 8.34668Z" fill="#B4B4B4"/>
</svg>

<svg xmlns="http://www.w3.org/2000/svg" width="118" height="28" fill="none" viewBox="0 0 118 28"><path fill="#b4b4b4" d="M15.262.605h-3.606A11.59 11.59 0 0 0 .08 12.185a11.59 11.59 0 0 0 11.576 11.577h3.62a11.59 11.59 0 0 0 11.579-11.577A11.59 11.59 0 0 0 15.262.605m-13.75 11.58A10.136 10.136 0 0 1 13.34 2.188a10.09 10.09 0 0 1 8.443 9.991 6.525 6.525 0 0 1-5.433 6.422 7.95 7.95 0 0 0 3.26-6.422 7.945 7.945 0 0 0-5.97-7.709 8 8 0 0 0-1.99-.252 7.97 7.97 0 0 0-7.945 7.961 11.55 11.55 0 0 0 5.388 9.8 10.15 10.15 0 0 1-7.571-9.794zM13.454 5.93a6.504 6.504 0 0 1 4.703 6.255 6.5 6.5 0 0 1-4.703 6.251 6.504 6.504 0 0 1-4.704-6.251 6.504 6.504 0 0 1 4.704-6.255m1.808 16.385h-.041q-.827-.005-1.644-.14a10.086 10.086 0 0 1-8.432-9.65v-.34a6.52 6.52 0 0 1 5.432-6.422 7.94 7.94 0 0 0-3.263 6.422 7.944 7.944 0 0 0 5.97 7.706 7.97 7.97 0 0 0 9.952-7.706 11.54 11.54 0 0 0-5.388-9.8 10.136 10.136 0 0 1 7.558 9.8 10.135 10.135 0 0 1-10.144 10.13M50.034 21.743h-16.49v-1.86c2.033-.343 2.433-1.058 2.433-1.745V6.486c0-1.315-.4-1.86-2.432-2.003v-1.86h10.363v1.86c-2.033.143-2.433.688-2.433 2.003v12.327c0 .685.2 1.173 1.918 1.173h1.86c1.058 0 2.318-.515 3.205-3.32h1.86zm1.487-7.013c0-4.635 3.35-8.07 8.1-8.07 5.011 0 7.901 3.377 7.901 7.497 0 4.61-3.405 7.988-8.07 7.988-5.096 0-7.93-3.293-7.93-7.415m10.62 1.06c0-4.55-1.574-7.27-3.12-7.27-1.46 0-2.06 1.832-2.06 4.465 0 4.637 1.603 7.3 3.118 7.3 1.436 0 2.063-1.805 2.063-4.495m7.156-1.06c0-4.635 3.35-8.07 8.1-8.07 5.011 0 7.901 3.377 7.901 7.497 0 4.61-3.405 7.988-8.073 7.988-5.092 0-7.928-3.293-7.928-7.415m10.621 1.06c0-4.55-1.575-7.27-3.12-7.27-1.46 0-2.063 1.832-2.063 4.465 0 4.637 1.606 7.3 3.12 7.3 1.433 0 2.063-1.805 2.063-4.495m23.05-1.86c0 5.007-3.033 8.218-7.413 8.218a6.4 6.4 0 0 1-2.578-.488v2.118c0 1.06.43 1.49 2.378 1.775v1.871h-9.36v-1.86c1.487-.342 1.66-.715 1.66-1.775V11.187c0-.745-.258-1.175-1.203-1.602l-.458-.2v-1.49l5.838-1.23h1.145v1.832a3.93 3.93 0 0 1 3.408-1.832c4.55-.006 6.583 3.5 6.583 7.265m-5.495 1.03c0-2.978-.822-5.553-2.805-5.553-.86 0-1.003-.058-1.69.457v5.753c0 3.408.547 4.41 2.032 4.41 1.375 0 2.463-1.69 2.463-5.067m19.329-6.613-2.632 3.608c-1.261-2.52-2.466-3.578-3.893-3.578-.86 0-1.975.515-1.975 1.402 0 3.014 8.958 1.058 8.788 7.701-.088 2.403-2.405 4.657-6.413 4.657-3.493 0-6.41-1.748-7.123-2.378l3.093-3.232c1.718 2.69 3.12 3.892 4.493 3.892.715 0 1.975-.315 2.005-1.717 0-3.236-8.846-.63-8.818-7.123 0-3.062 2.547-4.93 6.613-4.93 3.2.01 5.262 1.125 5.862 1.698"/></svg>
